site/static/images/icons/youtube-icon.svg

<svg fill="none" height="159" viewBox="0 0 159 159" width="159" xmlns="http://www.w3.org/2000/svg"><path d="m154.001 42.0734c-1.82-6.73-7.07-12-13.8-13.8-9.04-3.49-96.6004-5.2-122.0004.1-6.73 1.82-12.00004 7.07-13.80004 13.8-4.08 17.9-4.3899997 56.6.1 74.8996 1.82 6.73 7.07004 12 13.80004 13.8 17.9 4.12 103.0004 4.7 122.0004 0 6.73-1.82 12-7.07 13.8-13.8 4.35-19.4996 4.66-55.7996-.1-74.9996z" fill="#8492a6"/><path d="m104.8 80.4-40.8-23.4v46.8z" fill="#fff"/></svg>

<svg width="159" height="159" viewBox="0 0 159 159" fill="none" xmlns="http://www.w3.org/2000/svg">
<path d="M154.001 42.0734C152.181 35.3434 146.931 30.0734 140.201 28.2734C131.161 24.7834 43.6006 23.0734 18.2006 28.3734C11.4706 30.1934 6.20056 35.4434 4.40056 42.1734C0.32056 60.0734 0.0105603 98.7734 4.50056 117.073C6.32056 123.803 11.5706 129.073 18.3006 130.873C36.2006 134.993 121.301 135.573 140.301 130.873C147.031 129.053 152.301 123.803 154.101 117.073C158.451 97.5734 158.761 61.2734 154.001 42.0734Z" fill="#8492A6"/>
<path d="M104.8 80.4L64 57V103.8L104.8 80.4Z" fill="white"/>
</svg>
